public/SharkEdu.svg

<svg version="1.1" id="Layer_1" xmlns="http://www.w3.org/2000/svg" xmlns:xlink="http://www.w3.org/1999/xlink" x="0px" y="0px"
	 width="100%" viewBox="0 0 496 496" enable-background="new 0 0 496 496" xml:space="preserve">
<path fill="#79c0ff" opacity="1.000000" stroke="none" 
	d="
M305.833923,409.841553 
	C303.681427,411.796844 301.419678,411.345428 299.301636,411.347137 
	C267.138367,411.373138 234.975021,411.372803 202.811722,411.348846 
	C196.217255,411.343933 194.708618,409.794281 194.696304,402.967041 
	C194.662003,383.969086 194.606827,364.970428 194.751953,345.973511 
	C194.779510,342.367035 193.817017,339.850159 191.053391,337.339050 
	C174.689957,322.470856 164.640945,304.089203 161.659302,282.098175 
	C160.992798,277.182434 159.415543,274.301453 153.911530,275.345337 
	C152.946777,275.528320 151.916718,275.368317 150.916824,275.364410 
	C141.225952,275.326508 139.452469,273.358948 140.831741,263.747589 
	C141.183136,261.298920 141.640320,258.662354 142.847931,256.574219 
	C148.471375,246.850494 149.754166,235.835526 152.479477,225.267349 
	C155.806259,212.366745 159.390945,199.541153 163.991516,187.049103 
	C166.406067,180.492798 165.392746,173.892899 165.617050,167.289673 
	C165.702637,164.769989 163.925339,164.369522 161.900238,164.374130 
	C157.567398,164.383987 153.229721,164.240646 148.902969,164.401215 
	C144.273926,164.573029 141.950302,162.289459 141.889297,157.906281 
	C141.747833,147.742706 141.748123,137.575180 141.856567,127.411034 
	C141.906845,122.699394 144.620483,120.620956 149.280823,120.643784 
	C161.612564,120.704185 173.958481,120.316605 186.270859,120.807343 
	C192.084641,121.039078 195.230255,118.925537 198.141830,114.116180 
	C209.338470,95.621521 222.972626,79.096771 239.347900,64.872841 
	C250.307343,55.353233 251.255432,55.314663 262.228760,64.637154 
	C279.690765,79.472206 293.551575,97.291496 305.444397,116.714622 
	C307.261017,119.681511 309.278442,120.753738 312.668060,120.713593 
	C325.831451,120.557724 338.997955,120.635368 352.163147,120.669037 
	C358.666382,120.685661 360.247742,122.195732 360.286743,128.526352 
	C360.344238,137.858353 360.344299,147.191223 360.287781,156.523224 
	C360.249268,162.884659 358.712769,164.321487 352.185913,164.363770 
	C348.353149,164.388596 344.514069,164.501129 340.688995,164.328033 
	C337.459717,164.181885 336.623871,165.510544 336.227753,168.672348 
	C334.752106,180.450317 339.434906,190.905029 342.718689,201.663651 
	C346.894714,215.345383 350.633118,229.132721 353.497772,243.153961 
	C353.963562,245.433731 354.910797,247.549118 356.176849,249.564301 
	C359.898895,255.488678 361.562561,262.044159 361.734161,269.007660 
	C361.834961,273.097931 359.862518,275.252045 355.765747,275.326752 
	C352.267242,275.390594 348.764099,275.442871 345.268280,275.332642 
	C342.567444,275.247528 341.544250,276.313599 341.215973,279.068665 
	C338.469208,302.121033 328.856476,321.768097 311.460968,337.313934 
	C308.283966,340.153137 307.222076,343.156281 307.264923,347.315857 
	C307.457214,365.978607 307.361023,384.644470 307.328186,403.309143 
	C307.324463,405.428925 307.785431,407.686615 305.833923,409.841553 
M190.752991,151.155045 
	C174.666885,185.388123 163.907715,221.316849 156.641373,258.355865 
	C155.551422,263.911682 156.096405,264.648010 161.521759,264.649292 
	C221.175125,264.663422 280.828491,264.663116 340.481873,264.649597 
	C345.799896,264.648376 346.285065,264.006561 345.291840,258.845581 
	C338.823975,225.238342 329.338867,192.540329 315.633301,161.136826 
	C301.720032,129.257492 284.204865,99.786499 258.185699,76.070862 
	C250.796524,69.335846 250.859100,69.401848 243.464676,76.208870 
	C220.657730,97.204063 204.345581,122.761139 190.752991,151.155045 
M194.717804,325.779022 
	C219.885773,350.653442 257.934753,356.200867 288.798737,340.008270 
	C317.208588,325.103241 331.678497,290.754425 329.228912,275.590546 
	C328.459839,275.519562 327.647583,275.379211 326.835297,275.378937 
	C276.874908,275.362457 226.914352,275.417511 176.954407,275.266327 
	C171.444550,275.249664 171.942154,278.469513 172.500671,281.792450 
	C175.305771,298.481567 182.202377,313.171082 194.717804,325.779022 
M242.822891,360.192017 
	C229.993271,358.794952 217.843903,355.112885 206.023087,348.577698 
	C206.023087,365.262177 206.029968,381.201599 206.017517,397.141022 
	C206.014877,400.522491 208.265350,400.659058 210.785736,400.657166 
	C237.772980,400.636658 264.760406,400.598175 291.747284,400.701385 
	C295.402405,400.715363 296.755981,399.493652 296.718781,395.784332 
	C296.571869,381.126007 296.657715,366.465424 296.626740,351.805756 
	C296.624756,350.872040 296.939789,349.752838 295.357025,348.894714 
	C279.442291,357.521637 262.139709,361.401764 242.822891,360.192017 
M334.576050,153.652618 
	C348.995789,153.661591 348.996735,153.661591 349.014954,139.379883 
	C349.016449,138.219040 348.983337,137.058167 348.982941,135.897308 
	C348.982086,133.545990 348.014923,132.081314 345.474823,132.080124 
	C335.395966,132.075439 325.317108,132.078201 314.472198,132.078201 
	C316.850555,136.921997 319.481201,141.167679 321.063904,145.773483 
	C323.230255,152.077866 326.928528,154.999451 334.576050,153.652618 
M156.141754,153.585754 
	C161.780167,153.606323 167.418579,153.643692 173.056961,153.636017 
	C174.522247,153.634033 176.389984,154.022141 177.167007,152.511841 
	C180.452286,146.126373 183.541672,139.640106 187.282471,132.007721 
	C180.089676,132.007721 174.336075,132.010590 168.582458,132.007156 
	C152.925430,131.997818 152.903122,131.997284 153.269257,147.840363 
	C153.316238,149.873703 152.611618,152.309540 156.141754,153.585754 
z"/>
<path fill="#79c0ff" opacity="1.000000" stroke="none" 
	d="
M214.372604,170.292084 
	C247.150665,147.929016 282.834808,158.646301 305.518677,187.550064 
	C309.547424,192.683487 312.894867,198.242783 315.029144,204.463318 
	C318.910645,215.776398 316.280518,224.389145 306.732239,231.717468 
	C299.369171,237.368622 290.977295,240.967117 282.335663,244.110138 
	C252.763138,254.865829 225.066803,249.813141 198.664703,234.154785 
	C196.256531,232.726547 194.064987,230.830231 192.043213,228.872131 
	C185.323181,222.363785 183.147797,214.748413 186.397278,205.677704 
	C191.714508,190.835083 201.564774,179.641617 214.372604,170.292084 
M196.943634,209.520599 
	C195.460541,216.605164 196.565048,219.635727 204.075821,224.189209 
	C222.032257,235.075531 241.250992,241.359177 262.534241,237.610184 
	C276.236267,235.196609 289.387909,230.954575 300.506622,222.133514 
	C307.639404,216.474716 306.533691,204.143570 298.357239,198.735870 
	C294.748260,204.102066 291.128113,209.468811 287.526093,214.847717 
	C285.826569,217.385651 284.132599,219.908966 280.495178,219.493484 
	C276.742493,219.064865 275.971954,216.019516 274.996246,213.176453 
	C273.254242,208.100525 271.533752,203.017181 269.368988,196.658279 
	C265.673523,202.209564 262.640198,206.353287 260.039642,210.752838 
	C253.188858,222.342819 248.691605,222.418030 242.012665,210.968979 
	C239.369446,206.438004 236.184219,202.223251 232.487335,196.739471 
	C230.118698,203.730103 228.327133,209.545792 226.171860,215.223389 
	C224.194626,220.431854 219.121185,221.073639 215.686249,216.703705 
	C214.558517,215.268967 213.666687,213.650620 212.637436,212.136307 
	C209.515518,207.543045 206.379135,202.959610 202.977493,197.975403 
	C199.734360,201.600235 198.441879,205.173477 196.943634,209.520599 
M222.652176,178.169495 
	C218.914352,180.395050 215.548370,183.086227 212.531708,186.220184 
	C211.472565,187.320526 210.245544,188.434677 211.384903,190.082016 
	C213.692230,193.418045 215.374374,197.252136 219.235825,200.379654 
	C221.257660,194.418564 223.098618,188.961212 224.961578,183.511368 
	C225.803055,181.049698 226.966187,178.928909 229.985657,178.674255 
	C232.806366,178.436356 234.752213,179.707092 236.204330,181.997192 
	C237.094528,183.401108 238.026672,184.779099 238.963562,186.152649 
	C242.754623,191.710785 246.554855,197.262650 250.971741,203.723846 
	C256.004181,196.309799 260.347260,189.896469 264.707642,183.494888 
	C266.388702,181.026825 267.858368,178.289749 271.596436,178.676697 
	C275.608246,179.091965 276.277283,182.291214 277.436157,185.249176 
	C279.330872,190.085175 280.155060,195.360947 283.032532,200.031998 
	C285.721954,197.827423 286.855957,194.937805 288.807831,192.712509 
	C291.439026,189.712708 291.001495,187.487106 288.028046,184.851959 
	C270.169800,169.025528 246.761642,163.561081 222.652176,178.169495 
z"/>
</svg>

<svg xmlns="http://www.w3.org/2000/svg" viewBox="0 0 496 496" xml:space="preserve">
  <path fill="#79c0ff" d="M305.834 409.842c-2.153 1.955-4.414 1.503-6.532 1.505q-48.246.038-96.49.002c-6.595-.005-8.103-1.555-8.116-8.382-.034-18.998-.09-37.997.056-56.993.028-3.607-.935-6.124-3.699-8.635-16.363-14.868-26.412-33.25-29.394-55.24-.666-4.917-2.243-7.798-7.747-6.754-.965.183-1.995.023-2.995.02-9.691-.038-11.465-2.006-10.085-11.617.351-2.45.808-5.086 2.016-7.174 5.623-9.724 6.906-20.738 9.631-31.307 3.327-12.9 6.912-25.726 11.513-38.218 2.414-6.556 1.4-13.156 1.625-19.76.086-2.519-1.692-2.92-3.717-2.915-4.333.01-8.67-.133-12.997.027-4.63.172-6.953-2.112-7.014-6.495a1241 1241 0 0 1-.032-30.495c.05-4.712 2.763-6.79 7.424-6.767 12.332.06 24.677-.327 36.99.163 5.814.232 8.96-1.881 11.87-6.69 11.197-18.495 24.832-35.02 41.207-49.244 10.96-9.52 11.907-9.558 22.88-.236 17.463 14.835 31.324 32.654 43.216 52.078 1.817 2.967 3.834 4.039 7.224 3.999 13.163-.156 26.33-.079 39.495-.045 6.503.017 8.085 1.527 8.124 7.857q.086 13.999 0 27.997c-.038 6.362-1.574 7.798-8.101 7.84-3.833.026-7.672.138-11.497-.035-3.23-.146-4.065 1.183-4.461 4.344-1.476 11.778 3.207 22.233 6.49 32.992 4.177 13.681 7.915 27.469 10.78 41.49.466 2.28 1.413 4.395 2.679 6.41 3.722 5.925 5.386 12.48 5.557 19.444.101 4.09-1.871 6.244-5.968 6.319-3.499.064-7.002.116-10.498.006-2.7-.085-3.724.98-4.052 3.736-2.747 23.052-12.36 42.7-29.755 58.245-3.177 2.84-4.239 5.842-4.196 10.002.192 18.663.096 37.328.063 55.993-.004 2.12.457 4.378-1.494 6.533M190.753 151.155c-16.086 34.233-26.845 70.162-34.112 107.2-1.09 5.557-.545 6.293 4.88 6.294q89.48.021 178.96 0c5.319 0 5.804-.642 4.81-5.803-6.467-33.608-15.952-66.306-29.658-97.71-13.913-31.879-31.428-61.35-57.447-85.065-7.39-6.735-7.327-6.67-14.721.138-22.807 20.995-39.12 46.552-52.712 74.946m3.965 174.624c25.168 24.874 63.217 30.422 94.08 14.23 28.41-14.906 42.88-49.255 40.43-64.418-.768-.071-1.58-.212-2.393-.212-49.96-.017-99.92.039-149.88-.113-5.51-.016-5.013 3.204-4.454 6.526 2.805 16.69 9.701 31.38 22.217 43.987m48.105 34.413c-12.83-1.397-24.98-5.08-36.8-11.614 0 16.684.007 32.624-.005 48.563-.003 3.381 2.247 3.518 4.768 3.516 26.987-.02 53.974-.059 80.961.044 3.655.014 5.009-1.207 4.972-4.917-.147-14.658-.061-29.319-.092-43.978-.002-.934.313-2.053-1.27-2.911-15.915 8.627-33.217 12.507-52.534 11.297m91.753-206.54c14.42.01 14.42.01 14.439-14.272.001-1.161-.032-2.322-.032-3.483 0-2.351-.968-3.816-3.508-3.817-10.079-.005-20.158-.002-31.003-.002 2.379 4.844 5.01 9.09 6.592 13.695 2.166 6.305 5.865 9.226 13.512 7.88m-178.434-.067c5.638.02 11.277.058 16.915.05 1.465-.002 3.333.386 4.11-1.124 3.285-6.386 6.375-12.872 10.115-20.504-7.192 0-12.946.003-18.7 0-15.657-.01-15.679-.01-15.313 15.832.047 2.034-.657 4.47 2.873 5.746"/>
  <path fill="#79c0ff" d="M214.373 170.292c32.778-22.363 68.462-11.646 91.146 17.258 4.028 5.133 7.376 10.693 9.51 16.913 3.882 11.313 1.252 19.926-8.297 27.254-7.363 5.652-15.755 9.25-24.396 12.393-29.573 10.756-57.27 5.703-83.671-9.955-2.408-1.428-4.6-3.325-6.622-5.283-6.72-6.508-8.895-14.124-5.646-23.194 5.318-14.843 15.168-26.036 27.976-35.386m-17.43 39.229c-1.482 7.084-.378 10.115 7.133 14.668 17.956 10.887 37.175 17.17 58.458 13.421 13.702-2.413 26.854-6.655 37.973-15.476 7.132-5.66 6.027-17.99-2.15-23.398-3.609 5.366-7.229 10.733-10.83 16.112-1.7 2.538-3.394 5.061-7.032 4.645-3.753-.428-4.523-3.473-5.499-6.317-1.742-5.075-3.462-10.159-5.627-16.518-3.695 5.552-6.729 9.695-9.33 14.095-6.85 11.59-11.347 11.665-18.026.216-2.644-4.531-5.829-8.746-9.526-14.23-2.368 6.991-4.16 12.807-6.315 18.484-1.977 5.209-7.05 5.85-10.486 1.48-1.127-1.434-2.02-3.052-3.049-4.567-3.121-4.593-6.258-9.176-9.66-14.16-3.243 3.624-4.535 7.197-6.033 11.545m25.708-31.352a48.3 48.3 0 0 0-10.12 8.051c-1.06 1.1-2.286 2.215-1.147 3.862 2.307 3.336 3.99 7.17 7.85 10.298 2.023-5.961 3.864-11.419 5.727-16.869.841-2.461 2.004-4.582 5.024-4.837 2.82-.238 4.766 1.033 6.218 3.323.89 1.404 1.823 2.782 2.76 4.156 3.79 5.558 7.59 11.11 12.008 17.57 5.032-7.413 9.375-13.827 13.736-20.228 1.68-2.468 3.15-5.205 6.888-4.818 4.012.415 4.681 3.614 5.84 6.572 1.895 4.836 2.72 10.112 5.597 14.783 2.689-2.205 3.823-5.094 5.775-7.32 2.631-3 2.193-5.225-.78-7.86-17.858-15.826-41.266-21.29-65.376-6.683"/>
</svg>
